!!!id: BC064
!!!page: 80-81
!!!COM: Buxeuil, René de
!!!LYR: Thomas, Vigile; Buxeuil, René de
!!!PTL@@FR: Les 100 plus belles chansons
!!!OTL@@FR: La rim doum dim
!!!PUB: La Bonne Chanson, inc.
!!!YEM: On ne peut reproduire, enregistrer ou diffuser en tout ou en partie le présent ouvrage, sous quelque procédé que ce soit, électronique, mécanique, photographique, sonore, magnétique ou autre, sans avoir obtenu au préalable l'autorisation écrite de l'éditrice.
!!!PDT: 2011
!!!SMA: 2012 Bibliothèque nationale du Québec; Biblothèque nationale du Canada
!!!AGN-Laforte: Strophique (avec refrain), 2:10(13); R:8(6)
!!!AGN-type: Chanson d'amour
!!!AGN-rime: mixtes: croisées + suivies (abab,cdcd,ee); refrain: mixtes, coirsées + embrassées (abab,acca)
**kern
*clefG2
*k[f#]
*G:
*6/8
*
*
8dd
=1
8dd
8ee
8dd
8b
8g
8a
=2
(4.b
4b)
8b
!!LO:PB:g=original
=3
8b
8cc
8b
8g
8e
8f#
=4
[4.g
4g]
8g
=5
8g
8f#
8e
8e
8d#
8e
!!LO:PB:g=original
=6
(4.b
4a)
8a
=7
8cc#
8b
8a
8g
8d#
8e
=8
[4.a
4a]
8dd
!!LO:PB:g=original
=9
8dd
8ee
8ee
8b
8g
8a
=10
(4.b
4b)
8e
=11
8e
8d#
8e
8g#
8b
8dd
!!LO:PB:g=original
=12
[4.cc
4cc]
8cc
=13
8cc
8b
8a
8a
8gn
8e
=14
(4.dd
4b)
8b
!!LO:PB:g=original
=15
8a
8f#
8g
8a
8b
8cc#
=16
[4.dd
8dd]
8r
8dd
=17
8ccn
8dd
8ee
8cc
8b
8cc
!!LO:PB:g=original
=18
(4.b
4a)
8dd
=19
8g
8f#
8g
8e
8f#
8g
=20
(4.a
8a)
8r;
!!LO:PB:g=original
=||
*>Refrain
!!LO:TX:a:B:t=REFRAIN
*^
8d	8d
=21	=21
4dd	4b
8dd	8b
4dd	4b
8cc	8a
=22	=22
[4.b	[4.g
4b]	4g]
8cc	8a
=23	=23
4dd	4b
8cc#	8a#
4dd	4b
8ee	8ccn
=24	=24
(4dd	(4b
8cc#	8a#
4ccn)	4an)
8d	8d
!!LO:PB:g=original
=25	=25
4cc	4a
8cc	8a
4cc	4a
8b	8g
=26	=26
[4.b	[4.g
4b]	4g]
8cc	8a
=27	=27
4dd	4b
8b	8g
4cc	4a
8dd	8b
=28	=28
(4.dd#	(4.b
4ee)	4cc)
8r	8ryy
!!LO:PB:g=original
=29	=29
4ee	4cc
8ee	8cc
8ee	8cc
8ddn	8b
8cc	8a
=30	=30
(4.b	(4.g
4dd)	4b)
8b	8g
=31	=31
4dd	4b
8cc	8a
4a	4cc
8b	8dd
=32	=32
((16bL	((16ddL
16aJ)	16ccJ)
4g	4b
4g)	4b)
==	==
*v	*v
*-
!!!EED: Ève Poudrier
!!!EEV: 2025/June/24
